X:1
T:Polka
T:Polka
T:Pascual Roch
T:Método Moderno para Guitarra (Escuela de Tárrega)
C:Pascual Roch
%%score ( 1 2 )
L:1/8
Q:1/4=72
M:2/4
K:A
V:1 treble-8 nm="Classical Guitar" snm="Guit."
V:2 treble-8 
V:1
 a/f/g/e/ | f[Acf]/e/ f[Acf]/e/ | f[Ac] a/f/g/e/ | f[Acf]/e/ f[Acf]/a/ | g[Bd]"^½ VII" d'/b/c'/a/ | %5
"^VII" b[dgb]/b/ a[Bda]/f/ | g[Bd] B/c/d/e/ | f/^e/f/a/ g[Bdf] | fe a/f/g/e/ | %9
 f[Acf]/e/ f[Acf]/e/ | f[Ac] c/e/a/c'/ | e'2 g/b/a/g/ | f[Bd]"^½ VII" d'/b/c'/a/ | %13
 b[dgb]/b/"^VII" a[Bda]/f/ | g[Bd] B/c/d/e/ | f/e/^d/e/ ^e/f/^^f/g/ |"^½ II" a2 [Aca]2 || %17
[K:D] f/^e/f/g/ f=e |"^II" e[Fd] [FA] z | b/a/g/f/ a/g/f/g/ | e[EG] [EG] z | c'/b/c'/d'/ c'[egb] | %22
 b[eg] [ce] z | A,/e/g/c'/ e'/d'/c'/b/ | b[df] [dfa] z | f/^e/f/g/ f=e |"^II" e[Fd] [FA] z | %27
 b/a/^g/a/ d'/c'/e'/d'/ | c'[gb] [gb] z | a/g/f/g/ g[ce] | e[Gc] [EG] z | B/A/^G/A/ B/A/B/c/ | %32
 [Fd]2 z2 |] %33
V:2
 x2 | A,2 E,2 | A,2 x2 | A,2 A,2 | E,2 x2 | E,2 B,2 | E,2 x2 | E,2 E,2 | A,2 x2 | A,2 E,2 | %10
 A,2 x2 | E,2 x2 | D2 x2 | E,2 B,2 | E,2 x2 | A,2 x2 | A,2 x2 ||[K:D] D2 A,2 | F,2 x2 | D2 A,2 | %20
 C2 x2 | A,2 A,2 | E,2 x2 | A,2 A,2 | D2 x2 | D2 A,2 | F,2 x2 | A,2 A,2 | G2 x2 | A,2 A,2 | C2 x2 | %31
 A,2 C2 | D2 x2 |] %33

